X: 9477
T: Dargai
R: jig
M: 6/8
K: Amajor
c2A B2A|c2A e3|c2A B2A|c2A F2A|
c2A B2A|c2A a2g/f/|e2A e2c|B3 A2 c/d/|
e2A f2A|e2A c3|e2A f2A|e2A B2c/d/|
e2A f2A|e2A a2g/f/|e2A e2c|B3 A||

